X:6
T:Vail's Breakdown
R:reel
S:home recording of Jerry Holland
O:New Brunswick
D:Lisa MacArthur
Z:Paul Stewart Cranford (P.S.C.), <http://www.cranfordpub.com>
L:1/8
M:C|
Q:333
K:G
G,A,|B,3 C DEDB,|C2 EC EGcB|ABAG FDEF|GBAG FDCA,|
B,3 C DEDB,|C2 EC EGcB|ABAG FDEF|GBAF G2:|
|:Bc|dg g/g/g g2 eg|fdAB cBcA|d2 dA FDEF|GABc d2 Bc|
dg g/g/g g2 eg|fdAB cBcA|d2 dA FDEF|GBAF G2:|
